src/lib/packages/icons/src/assets/filled/mug.svg

<svg xmlns="http://www.w3.org/2000/svg" width="24" height="24" fill="none"><path fill="currentColor" d="M8 16.75h6c2.42 0 3.75-1.33 3.75-3.75v-.28c2.23-.13 4-1.97 4-4.22s-1.91-4.25-4.25-4.25h-12c-.69 0-1.25.56-1.25 1.25V13c0 2.42 1.33 3.75 3.75 3.75ZM20.25 8.5c0 1.43-1.1 2.6-2.5 2.72V5.77c1.4.13 2.5 1.29 2.5 2.72v.01Zm1.5 10.5c0 .41-.34.75-.75.75H3c-.41 0-.75-.34-.75-.75s.34-.75.75-.75h18c.41 0 .75.34.75.75Z"/></svg>

<svg width="24" height="24" viewBox="0 0 24 24" fill="none" xmlns="http://www.w3.org/2000/svg">
<path d="M8 16.75H14C16.42 16.75 17.75 15.42 17.75 13V12.72C19.98 12.59 21.75 10.75 21.75 8.5C21.75 6.25 19.84 4.25 17.5 4.25H5.5C4.81 4.25 4.25 4.81 4.25 5.5V13C4.25 15.42 5.58 16.75 8 16.75ZM20.25 8.5C20.25 9.93 19.15 11.1 17.75 11.22V5.77C19.15 5.9 20.25 7.06001 20.25 8.49001V8.5ZM21.75 19C21.75 19.41 21.41 19.75 21 19.75H3C2.59 19.75 2.25 19.41 2.25 19C2.25 18.59 2.59 18.25 3 18.25H21C21.41 18.25 21.75 18.59 21.75 19Z" fill="currentColor"/>
</svg>
